X: 2486
T: Ballydesmond, The
R: polka
M: 2/4
K: Adorian
|:c2 Bc/B/|AB/A/ G>A|Bd ed|g2 gd|
e/g/a ge|dB GA/B/|ce dB|A2 A2:|
|:ea ag/e/|dg ge/d/|ea ab|g2 ed|
ea g/a/g/e/|dB GA/B/|ce dB|A2 A2:|

